X: 0
T: S. Aldate
Z: Arthur H. Brown
Z: Copyright © 2006 by Douglas D. Anderson
Z: Released to the Public Domain
L: 1/4
M: none
Q: 1/4=340
V: P1 name="Soprano"
%%MIDI program 1 19
V: P2 name="Alto"
%%MIDI program 2 60
V: P3 name="Tenor"
%%MIDI program 3 57
V: P4 name="Bass"
%%MIDI program 4 58
K: Bb
[V: P1]  F2 | B3 B B2 c2 | d6 c2 | B2 A2 G3 F | F6 F2 | E2 D2 G2 A2 | B2 c2 A2 d2 | B2 c2 F2 (G A) | B6|]
w: All hosts, a- bove, be- neath, Sing the In- carn ate Lord. With in- stru ments and pi- ous breath At- tune each mea- sured_ word.
[V: P2]  C2 | F3 D D2 F2 | F6 (F E) | D2 F2 F2 E2 | D6 F2 | B,2 A,2 B,2 (C D) | B,2 E2 C2 F2 | D2 C2 C2 E2 | D6|]
[V: P3]  A,2 | B,3 F, G,2 A,2 | B,6 A,2 | B,2 (D C) B,3 C | D6 (C D) | E2 A,2 G,2 ^F,2 | G,2 G,2 A,2 A,2 | G,2 G,2 A,2 C2 | B,6|]
[V: P4]  F,2 | D,3 B,, G,2 F,2 | B,6 F,2 | G,2 D,2 (E, F, G,) A, | B,6 A,2 | G,2 F,2 E,2 D,2 | G,2 C,2 F,2 D,2 | G,2 E,2 F,2 F,2 | B,,6|]

